svgs/sharp-light/mattress-pillow.svg

<svg xmlns="http://www.w3.org/2000/svg" viewBox="0 0 640 512"><!--! Font Awesome Pro 6.6.0 by @fontawesome - https://fontawesome.com License - https://fontawesome.com/license (Commercial License) Copyright 2024 Fonticons, Inc. --><path d="M256 96l0 320L32 416 32 96l224 0zm32 0l320 0 0 320-320 0 0-320zM32 64L0 64 0 96 0 416l0 32 32 0 576 0 32 0 0-32 0-320 0-32-32 0L32 64zm160 96l0 192-96 0 0-192 96 0zM96 128l-32 0 0 32 0 192 0 32 32 0 96 0 32 0 0-32 0-192 0-32-32 0-96 0z"/></svg>

<svg xmlns="http://www.w3.org/2000/svg" viewBox="0 0 640 512"><!--! Font Awesome Pro 6.4.0 by @fontawesome - https://fontawesome.com License - https://fontawesome.com/license (Commercial License) Copyright 2023 Fonticons, Inc. --><path d="M256 96V416H32V96H256zm32 0H608V416H288V96zM32 64H0V96 416v32H32 608h32V416 96 64H608 32zm160 96V352H96V160h96zM96 128H64v32V352v32H96h96 32V352 160 128H192 96z"/></svg>
